**kern
*staff1
*solos[solo1,solo2]
=1-
*clefG2
*k[]
*C:
*M4/4
1r
=2
1r
=3
1r
=4
1r
=5
1r
=6
1r
=7
1r
=8
2r
4r
8r
8G/
=9
*>head1
{8B/L
8d/
8c/
8B/J
4d/
8r
[8f/
=10
8f/L]
8e/
8c/
8A/J
4e/
8c/L
[8G/J
=11
8G/L]
[8g/
8g/]
8c/J
8d/L
8c/J
4d/}
=12
8r
{4d/
8c/
8e/L
8g/J
12f/L
12g/
12f/J
=13
12e/L
12f/
12e/J
8c/L
[8B-/J
8B-/L]
[8a/
8a/]
8e/J
=14
8f/L
8c/
8A/
8F/J
8A-/L
[8e/
8e/]
8d/J
=15
8g/L
8G/
8A/
[8B-/J
4B-/]}
8r
8g/
=16
8f/L
8c/
8e/
[8d/J
8d/L]
8A-/
8e/
8B/J
=17
8g/L
8G/
8A/
[8B-/J
4B-/]
8r
8A/
=18:|!
4e/
8c/L
8A/J
4c/
4r
=19
4r
8r
{16e/LL
16e-/JJ
8d/L
8en/
8f#/
8g#/J
=20||
8dd-\L
8cc\J
2b\}
4r
=21
8r
{8d#/L
8e/
8f#/J
8g/L
8f#/
8e/
8dn/J
=22
12c#/L
12d/
12d#/J
2e/}
4r
=23
4r
{12d/L
12e/
12f/J
8f#/L
8g/
8a/
8b/J
=24
8cc\L
8dd\
8ee\
[8b\J
8b\]
24ee\LL
24dd\
24cc\JJ
8a/L
8f/J
=25
8d/L
8A/
8c#/
8a/J
12f/L
12c#/
12A/J
8cn/L
8A/J
=26
12B/L
12d/
12f/J
12a-/L
12b-/
12a-/J
8g/L
8f/
8e/
8d/J
=27
8B/L
8d/
8c/
8B/J
4d/}
8r
{[8f/
=28||
8f/L]
8e/
8c/
8A/J
4e/
8c/L
[8G/J
=29
8G/L]
[8g/
8g/]
8G/J
8d/L
8c/J
4d/}
=30
8r
{4d/
8c/
8e/L
8g/J
12f/L
12g/
12f/J
=31
12e/L
12f/
12e/J
8c/L
[8B-/J
8B-/L]
[8a/
8a/]
8e/J
=32
8f/L
8c/
8A/
8F/J
8A-/L
[8e/
8e/]
8d/J
=33
8g/L
8G/
8A/
[8B-/J
4B-/]
8r
8A/
=34
4e/
8c/L
8A/J
4c/}
4r
=35
4r
8r
*>solo1
{8e/
8g/L
8f/
8e/
8c/J
=36||
8d/L
8c/J
12B/L
12d/
12f/J
12a-/L
12b-/
12a-/J
8g/L
8f/J
=37
16e/LL
16g/
16b/
16dd/JJ
4a/}
2r
=38
4r
8r
{[8b-\
24b-\LL]2G:dom
24cc\
24b-\JJ
8a-/L
8g/
8f/J
=39
8e/L
8c/
8c#/
8d/J
8B-/L
8A-/J
12An/L
12c#/
12e/J
=40
8g/L
8f/
8c/
8A/J
8A-/L
8f/
8d/
8e-/J
=41
8e/L
8G/
8A/
8B/J
8d/L
8c/J}
4r
=42
2r
4r
{8g/L
8a/J
=43
8cc\L
8ee-\
8dd\
[8cc\J
8cc\L]
[8b-\J
24b-\LL]
24cc\
24b-\JJ
8a/
=44||
8a-/L
8f/
8e-/
8c/J
4g/}
8r
{8f/
=45
12e/L
12g/
12b/J
8dd/L
8a/J}
4r
8r
{16cc/LL
16a/JJ
=46
8f/L
8e/
8d/
8c/J
12B/L
12d/
12f/J
8a-/L
16b-/L
16a-/JJ
=47
8g/L
8f/
8e/
8c/J
8c#/L
8d/
8B-/
8G/J
=48
8c/L
8A-/J
12An/L
12c/
12e/J
8g/L
8f/
8A/
8A-/J
=49
8G/L
8f/
8d/
8d#/J
2e/}
=50
2r
8r
{8e/L
8f#/
8a/J
=51
8a-/L
8g-/
8e/
8e-/J
8d/L
8en/
8f#/
8a-/J
=52||
4cc#\
8ee\L
8b\J}
2r
=53
{24ff#\LL1A:dom
24gg\
24ff#\JJ
8ee\L
8dd\
[8cc#\J
8cc#\L]
8ee\J
4b\
=54
8r
8d#/L
8e/
8f#/J
4g/}
4r
=55
4r
8r
{16e/LL
16f/JJ
16f#/LL
16g/
16a/
16b/JJ
16cc/LL
16b/
16a/
16g/JJ
=56
16f#/LL
16a/
16cc/
16ee/JJ
4b\}
8r
{24ee\LL
24dd\
24cc\JJ
8a/L
8f#/J
=57
8d/L
8A/
8c#/
8f/J}
4r
8r
{[8cn/
=58
8c/L]
8A/J
12B/L
12d/
12f/J
12a-/L
12b-/
12a-/J
8g/L
8f/J
=59
4e/
8c/L
8A/J
4.c/
8e/
=60||
8f/L
8g/
8a/
8b/J
8cc/L
8g/J}
4r
=61
4r
8r
{8b\
4a/
8r
8e/
=62
8g/L
8f/
8c/
8A/J
8A-/L
8f/
8d/
8e-/J
=63
8e/L
8c/
8c#/
8d/J
8B-/L
8G/
8c#/
8B-/J
=64
12A/L
12c/
12e/J
8g/L
[8f/J
8f/L]
8c/
8A-/
8G-/J
=65
8G/L
[8d/J
2d/]}
4r
=66
4r
8r
{[8d/
8d/L]
8c/
8d/
8e/J
=67
8f/L
8g/
8e/
8c/J
4d/}
4r
=68||
4r
8r
{[8b\
4b\]
4a/
=69
8g/L
8d/J
12f/L
12a/
12cc/J
12ee\L
12ff\
12ff#\J
8gg\L
8ff#\J
=70
8ff\L
8ee\
8dd\
8dd-\J
8cc\L
8b-\J
16a-/LL
16b-/
16a-/
16f/JJ
=71
8e-/L
8c/J
24g/LL
24a-/
24g/JJ
8f/
8e-/L
8c/
8c#/
8d/J
=72
8B-/L
8A-/J
12An/L
12c/
12e/J
8g/L
8f/
8c/
8A/J
=73
4.e/
[8g/
4g/]}
4r
=74
2r
8r
{[8cc\
24cc\LL]
24dd\
24cc\JJ
8b\
=75
8dd\L
8cc\J}
4r
4r
8r
*solo2
{8g/
=76||
4b\
8b\L
8cc\J
8b/L
8a/
8g/
8e/J
=77
4a/}
4r
8r
{8f/L
8a/
8cc/J
=78
8a/L
8e-/
8d-/
8G/J
4.B-/
8A-/
=79
8G/L
8F/J
12E/L
12G/
12B-/J
8d/L
8d-/
8c/
8B-/J
=80
8A/L
8c/
8d/
8c/J
8g/L
8f/
8c/
8A-/J
=81
8G/L
8f/
8d/
8d#/J
4e/}
4r
=82
1r
=83
{2b\
8f#/L
8g#/
8a/
8g#/J
=84||
4f#/}
4r
4r
8r
{[8b\
=85
4.b\]
8d#/
8e/L
8f#/
8g/
8f#/J
=86
4e/}
4r
4r
{[4b\
=87
4.b\]
8d#/
8e/L
8f#/
8g/
8f#/J
=88
8e/L
8e-/
8d/
8en/J
4f#/}
4r
=89
8r
{16d/LL
16e/J
8f/
8g/J
8a\L
8b\
8cc\
8dd\J
=90
8ee/L
8a/J}
4r
{6a-/
6b\
6ff\
=91
4ee\}
4r
4r
{8g/L
8a/J
=92||
8cc\L
8dd\J}
4r
4r
{8g/L
8a/J
=93
8cc\L
8ee-\
8dd\
8cc\J
8b-/L
8b-/
8a-/
8f/J
=94
8e-/L
8c/
8g/
8f/J}
4r
8r
{8e-/
=95
12e/L
12f/
12f#/J
8g/L
8fn/J
8e/L
8c/
8c#/
8d/J
=96
8B-/L
8A-/J
12An/L
12c/
12e/J
8g/L
8f/
8c/
8A-/J
=97
8G/L
8f/
8d/
8e-/J
8en/L
[8c/J
4c/]}
=98
8r
{8cc\
12dd\L
12cc\
12b\J
8dd\L
8cc\
8b\
8a\J
=99
8g/L
8f/
8e/
[8f/J
4f/]}
4r
==
*-
